X: 41628
T: Up Spincin
R: reel
M: 4/4
K: Gmajor
GEDE ~G3B|AGED EAAE|GEDE ~G3B|dBAF ~G3z|
GEDE GABG|AGED EAAD|Bddg edBe|dBAD ~G3z||
GEDE ~G3B|AGED EAAE|GEDE GABG|dBAd BG~G2|
GEDE ~G3B|AGED EAAz|Bddg edBe|dBAD ~G3z||
B3d edBe|dBGB AGEG|Bddg egdg|eg~g2 abgd|
Bdd2 edBe|dBGB AGEz|GEDE GABe|dBAd ~G3z||
Bdd2 edBe|dBBG AGEG|Bddg egdg|eg~g2 abgd|
Bdd2 edBe|dBGB AGEz|GEDE GABe|dBAd ~G3z||

